round/svg/directions_bus.svg

<svg xmlns="http://www.w3.org/2000/svg" width="24" height="24"><path fill="none" d="M0 0h24v24H0V0z"/><path d="M4 16c0 .88.39 1.67 1 2.22v1.28c0 .83.67 1.5 1.5 1.5S8 20.33 8 19.5V19h8v.5c0 .82.67 1.5 1.5 1.5.82 0 1.5-.67 1.5-1.5v-1.28c.61-.55 1-1.34 1-2.22V6c0-3.5-3.58-4-8-4s-8 .5-8 4v10zm3.5 1c-.83 0-1.5-.67-1.5-1.5S6.67 14 7.5 14s1.5.67 1.5 1.5S8.33 17 7.5 17zm9 0c-.83 0-1.5-.67-1.5-1.5s.67-1.5 1.5-1.5 1.5.67 1.5 1.5-.67 1.5-1.5 1.5zm1.5-6H6V6h12v5z" fill="currentColor"/></svg>

<?xml version="1.0" encoding="utf-8"?>
<!-- Generator: Adobe Illustrator 19.1.0, SVG Export Plug-In . SVG Version: 6.00 Build 0)  -->
<svg version="1.1" xmlns="http://www.w3.org/2000/svg" xmlns:xlink="http://www.w3.org/1999/xlink" x="0px" y="0px" width="24px"
	 height="24px" viewBox="0 0 24 24" enable-background="new 0 0 24 24" xml:space="preserve">
<g id="Bounding_Boxes">
	<path fill="none" d="M0,0h24v24H0V0z"/>
</g>
<g id="Rounded" fill="currentColor">
	<path d="M4,16c0,0.88,0.39,1.67,1,2.22v1.28C5,20.33,5.67,21,6.5,21h0C7.33,21,8,20.33,8,19.5V19h8v0.5c0,0.82,0.67,1.5,1.5,1.5h0
		c0.82,0,1.5-0.67,1.5-1.5v-1.28c0.61-0.55,1-1.34,1-2.22V6c0-3.5-3.58-4-8-4S4,2.5,4,6V16z M7.5,17C6.67,17,6,16.33,6,15.5
		S6.67,14,7.5,14S9,14.67,9,15.5S8.33,17,7.5,17z M16.5,17c-0.83,0-1.5-0.67-1.5-1.5s0.67-1.5,1.5-1.5s1.5,0.67,1.5,1.5
		S17.33,17,16.5,17z M18,11H6V6h12V11z"/>
</g>
</svg>
